src/assets/icons/category_God.svg

<?xml version="1.0" encoding="UTF-8" standalone="no"?>
<svg width="38px" height="38px" viewBox="0 0 38 38" version="1.1" xmlns="http://www.w3.org/2000/svg" xmlns:xlink="http://www.w3.org/1999/xlink">
    <!-- Generator: sketchtool 41.2 (35397) - http://www.bohemiancoding.com/sketch -->
    <title>DABA0E25-D1F2-4A9D-8204-B51ADE5AD316</title>
    <desc>Created with sketchtool.</desc>
    <defs></defs>
    <g id="Nav" stroke="none" stroke-width="1" fill="none" fill-rule="evenodd">
        <g id="Categories_Selected_Mobile-" transform="translate(-80.000000, -63.000000)" fill="#AEAEAE">
            <g id="Group-21" transform="translate(87.000000, 71.000000)">
                <path d="M2.13903168,21.375 L5.37932335,15.558625 C6.18999001,17.8639583 9.09699001,19.5280417 12.666615,19.5280417 C16.21724,19.5280417 19.112365,17.881375 19.94124,15.5958333 L23.1886567,21.375 L2.13903168,21.375 Z M12.6634483,2.648125 L16.6621567,9.76125 C15.5102817,9.2625 14.1470317,8.97195833 12.666615,8.97195833 C11.16324,8.97195833 9.78019835,9.27120833 8.61724001,9.78420833 L12.6634483,2.648125 Z M12.666615,10.5552917 C15.8855317,10.5552917 18.604115,12.247875 18.604115,14.25 C18.604115,16.252125 15.8855317,17.9447083 12.666615,17.9447083 C9.44849001,17.9447083 6.72911501,16.252125 6.72911501,14.25 C6.72911501,12.247875 9.44849001,10.5552917 12.666615,10.5552917 L12.666615,10.5552917 Z M13.3569483,0.52725 C13.2168233,0.277875 12.95399,0 12.6681983,0 L12.6674067,0 C12.381615,0 12.1187817,0.276291667 11.977865,0.524083333 L6.03799001,11.1229167 L0.100490014,21.781125 C-0.0364683194,22.0265417 -0.0333016527,22.3257917 0.109198347,22.5680417 C0.251698347,22.8102917 0.511365014,22.9583333 0.791615014,22.9583333 L24.541615,22.9583333 C24.8226567,22.9583333 25.083115,22.778625 25.225615,22.5355833 C25.3673233,22.2925417 25.3696983,21.9624167 25.2319483,21.7177917 L13.3569483,0.52725 Z M12.6668525,12.6666667 C13.5400608,12.6666667 14.2501858,13.3767917 14.2501858,14.25 C14.2501858,15.1232083 13.5400608,15.8333333 12.6668525,15.8333333 C11.7936442,15.8333333 11.0835192,15.1232083 11.0835192,14.25 C11.0835192,13.3767917 11.7936442,12.6666667 12.6668525,12.6666667 Z M12.6668525,17.4166667 C14.4132692,17.4166667 15.8335192,15.9964167 15.8335192,14.25 C15.8335192,12.5035833 14.4132692,11.0833333 12.6668525,11.0833333 C10.9204358,11.0833333 9.50018585,12.5035833 9.50018585,14.25 C9.50018585,15.9964167 10.9204358,17.4166667 12.6668525,17.4166667 Z M19.7918525,4.75 C19.9945192,4.75 20.1971858,4.67241667 20.3515608,4.51804167 L22.7265608,2.14304167 C23.0361025,1.8335 23.0361025,1.33316667 22.7265608,1.023625 C22.4170192,0.714083333 21.9166858,0.714083333 21.6071442,1.023625 L19.2321442,3.398625 C18.9226025,3.70816667 18.9226025,4.2085 19.2321442,4.51804167 C19.3865192,4.67241667 19.5891858,4.75 19.7918525,4.75 Z M20.5916733,8.70833333 C20.5916733,9.141375 20.9423817,9.5 21.3754233,9.5 L24.54209,9.5 C24.9751317,9.5 25.3250483,9.141375 25.3250483,8.70833333 C25.3250483,8.27529167 24.9751317,7.91666667 24.54209,7.91666667 L21.3754233,7.91666667 C20.9423817,7.91666667 20.5916733,8.27529167 20.5916733,8.70833333 Z M4.98214418,4.51804167 C5.13651918,4.67241667 5.33918585,4.75 5.54185251,4.75 C5.74451918,4.75 5.94718585,4.67241667 6.10156085,4.51804167 C6.41110251,4.2085 6.41110251,3.70816667 6.10156085,3.398625 L3.72656085,1.023625 C3.41701918,0.714083333 2.91668585,0.714083333 2.60714418,1.023625 C2.29760251,1.33316667 2.29760251,1.8335 2.60714418,2.14304167 L4.98214418,4.51804167 Z M0.791852514,9.5 L3.95851918,9.5 C4.39551918,9.5 4.75018585,9.14533333 4.75018585,8.70833333 C4.75018585,8.27133333 4.39551918,7.91666667 3.95851918,7.91666667 L0.791852514,7.91666667 C0.354852514,7.91666667 0.000185847286,8.27133333 0.000185847286,8.70833333 C0.000185847286,9.14533333 0.354852514,9.5 0.791852514,9.5 Z" id="Combined-Shape"></path>
            </g>
        </g>
    </g>
</svg>

<svg width="38" height="38" viewBox="0 0 38 38" xmlns="http://www.w3.org/2000/svg"><g id="Nav" fill="none" fill-rule="evenodd"><g id="Categories_Selected_Mobile-" transform="translate(-80 -63)" fill="#AEAEAE"><g id="Group-21" transform="translate(87 71)"><path d="M2.139 21.375l3.24-5.816c.811 2.305 3.718 3.969 7.288 3.969 3.55 0 6.445-1.647 7.274-3.932l3.248 5.779H2.139zM12.663 2.648l4 7.113c-1.153-.498-2.516-.789-3.996-.789-1.504 0-2.887.3-4.05.812l4.046-7.136zm.004 7.907c3.219 0 5.937 1.693 5.937 3.695s-2.718 3.695-5.937 3.695c-3.219 0-5.938-1.693-5.938-3.695s2.72-3.695 5.938-3.695zm.69-10.028c-.14-.25-.403-.527-.689-.527-.286 0-.55.276-.69.524l-5.94 10.599L.1 21.78a.791.791 0 0 0 .692 1.177h23.75c.28 0 .541-.18.684-.422a.85.85 0 0 0 .006-.818L13.357.528zm-.69 12.14c.873 0 1.583.71 1.583 1.583s-.71 1.583-1.583 1.583-1.583-.71-1.583-1.583.71-1.583 1.583-1.583zm0 4.75a3.17 3.17 0 0 0 3.167-3.167 3.17 3.17 0 0 0-3.167-3.167A3.17 3.17 0 0 0 9.5 14.25a3.17 3.17 0 0 0 3.167 3.167zM19.792 4.75a.79.79 0 0 0 .56-.232l2.375-2.375a.79.79 0 1 0-1.12-1.12L19.232 3.4a.79.79 0 0 0 .56 1.351zm.8 3.958c0 .433.35.792.783.792h3.167a.79.79 0 0 0 .783-.792.79.79 0 0 0-.783-.791h-3.167a.79.79 0 0 0-.783.791zm-15.61-4.19a.79.79 0 0 0 1.12 0 .79.79 0 0 0 0-1.12L3.727 1.025a.79.79 0 1 0-1.12 1.119l2.375 2.375zM.792 9.5h3.167a.792.792 0 0 0 0-1.583H.792a.792.792 0 0 0 0 1.583z" id="Combined-Shape"/></g></g></g></svg>
